svg/600/outlined/format_line_spacing-fill.svg

<svg xmlns="http://www.w3.org/2000/svg" width="48" height="48" viewBox="0 -960 960 960"><path d="M246.218-144.869 65.868-325.218l55.567-55.566 84.608 83.739v-363.91l-84.608 83.173-55.566-55.566 180.349-180.348 179.783 180.348-55.566 55.566-84.608-83.173v363.91l84.608-83.739 55.566 55.566-179.783 180.349Zm259.218-41v-79.218h389.26v79.218h-389.26Zm0-254.522v-79.218h389.26v79.218h-389.26Zm0-255.087v-79.218h389.26v79.218h-389.26Z"/></svg>

<svg xmlns="http://www.w3.org/2000/svg" width="48" height="48" viewBox="0 -960 960 960"><path d="M246.22-144.87 65.87-325.22l55.56-55.56 84.61 83.74v-363.92l-84.61 83.18-55.56-55.57L246.22-813.7 426-633.35l-55.56 55.57-84.61-83.18v363.92l84.61-83.74L426-325.22 246.22-144.87Zm259.22-41v-79.22H894.7v79.22H505.44Zm0-254.52v-79.22H894.7v79.22H505.44Zm0-255.09v-79.22H894.7v79.22H505.44Z"/></svg>
